assets/Two-hump camel/Flat/two-hump_camel_flat.svg

<svg xmlns="http://www.w3.org/2000/svg" width="32" height="32" fill="none"><path fill="#D3883E" d="M13.34 18h3l2.58 11.62c.04.2-.11.38-.31.38H16.4c-.23 0-.44-.16-.49-.39L13.34 18ZM25 19.27h-2.36c-.15 0-.28.1-.31.25l-2.25 10.1c-.04.19.11.38.31.38h2.21c.23 0 .44-.16.5-.39l2.21-9.96a.32.32 0 0 0-.31-.38Z"/><path fill="#A56953" d="m11 3.6-2.81-.56A1.83 1.83 0 0 0 6 4.83v.8l5 .03V3.6ZM9.26 10v3.63h1.06V19H8.96C7.33 19 6 17.67 6 16.04v-.68c0-.19-.08-.38-.22-.51C5.3 14.4 5 13.77 5 13.06V10.9c0-.5.4-.9.9-.9h3.36Z"/><path fill="#F3AD61" d="m29.88 14.49-3-4.03-1.11-1.55a2.189 2.189 0 0 0-3.56 0L21 10.61c-.25.35-.77.35-1.02 0l-1.21-1.7a2.189 2.189 0 0 0-3.56 0l-2.27 3.17c-.28.42-.93.22-.94-.28V2.27c0-.15-.13-.27-.28-.27C10.77 2 10 3.27 10 4.23c0 .15-.13.27-.28.27H5.51C3.57 4.5 2 6.07 2 8.01v.87C2 9.5 2.5 10 3.12 10h2.94c.52-.01.94.41.94.93v2.38c0 2.67 1.47 5.01 3.64 6.25.22.13.36.36.36.62v9.31c0 .28.22.51.5.51h2c.28 0 .5-.22.5-.5V21h8c.78 0 1.51-.18 2.17-.49.17.88.45 1.73.85 2.53l.85 1.71c.09.16.13.35.13.53v4.15c0 .31.25.57.57.57h1.93c.28 0 .5-.22.5-.5l-.01-14.21c.37.31 1.01.08 1.01-.44 0-.13-.04-.26-.12-.36Z"/><path fill="#1C1C1C" d="M7.5 7.82c-.28 0-.5-.22-.5-.5v-.87c0-.28.22-.5.5-.5s.5.22.5.5v.88c0 .27-.22.49-.5.49Z"/><path fill="#D3883E" d="M3.5 9c-.28 0-.5-.22-.5-.5v-.44c0-.28.22-.5.5-.5s.5.22.5.5v.44c0 .28-.22.5-.5.5Z"/></svg>

<svg width="32" height="32" viewBox="0 0 32 32" fill="none" xmlns="http://www.w3.org/2000/svg">
<path d="M13.34 18H16.34L18.92 29.62C18.96 29.82 18.81 30 18.61 30H16.4C16.17 30 15.96 29.84 15.91 29.61L13.34 18Z" fill="#D3883E"/>
<path d="M25 19.27H22.64C22.49 19.27 22.36 19.37 22.33 19.52L20.08 29.62C20.04 29.81 20.19 30 20.39 30H22.6C22.83 30 23.04 29.84 23.1 29.61L25.31 19.65C25.35 19.46 25.2 19.27 25 19.27Z" fill="#D3883E"/>
<path d="M11 3.59999L8.19 3.03999C7.06 2.80999 6 3.67999 6 4.82999V5.62999L11 5.65999V3.59999Z" fill="#A56953"/>
<path d="M9.26 10V13.63H10.32V19H8.96C7.33 19 6 17.67 6 16.04V15.36C6 15.17 5.92 14.98 5.78 14.85C5.3 14.4 5 13.77 5 13.06V10.9C5 10.4 5.4 10 5.9 10H9.26Z" fill="#A56953"/>
<path d="M29.88 14.49L26.88 10.46L25.77 8.91C24.9 7.69 23.08 7.69 22.21 8.91L21 10.61C20.75 10.96 20.23 10.96 19.98 10.61L18.77 8.91C17.9 7.69 16.08 7.69 15.21 8.91L12.94 12.08C12.66 12.5 12.01 12.3 12 11.8V2.27C12 2.12 11.87 2 11.72 2C10.77 2 10 3.27 10 4.23C10 4.38 9.87 4.5 9.72 4.5H5.51C3.57 4.5 2 6.07 2 8.01V8.88C2 9.5 2.5 10 3.12 10H6.06C6.58 9.99 7 10.41 7 10.93V13.31C7 15.98 8.47 18.32 10.64 19.56C10.86 19.69 11 19.92 11 20.18V29.49C11 29.77 11.22 30 11.5 30C12.23 30 13.5 30 13.5 30C13.78 30 14 29.78 14 29.5V21H22C22.78 21 23.51 20.82 24.17 20.51C24.34 21.39 24.62 22.24 25.02 23.04L25.87 24.75C25.96 24.91 26 25.1 26 25.28V27.32C26 27.35 26 27.37 26 27.4V29.43C26 29.74 26.25 30 26.57 30H28.5C28.78 30 29 29.78 29 29.5L28.99 15.29C29.36 15.6 30 15.37 30 14.85C30 14.72 29.96 14.59 29.88 14.49Z" fill="#F3AD61"/>
<path d="M7.5 7.82001C7.22 7.82001 7 7.60001 7 7.32001V6.45001C7 6.17001 7.22 5.95001 7.5 5.95001C7.78 5.95001 8 6.17001 8 6.45001V7.33001C8 7.60001 7.78 7.82001 7.5 7.82001Z" fill="#1C1C1C"/>
<path d="M3.5 9C3.22 9 3 8.78 3 8.5V8.06C3 7.78 3.22 7.56 3.5 7.56C3.78 7.56 4 7.78 4 8.06V8.5C4 8.78 3.78 9 3.5 9Z" fill="#D3883E"/>
</svg>
